!!!OTL: BRUEDER HIER STEHT BIER STATT WEIN
!!!ARE: Europa, Mitteleuropa, Deutschland
!!!SCT: F0508
!!!YEM: Copyright 1995, estate of Helmut Schaffrath.
**kern
*ICvox
*Ivox
*M4/4
*k[f#]
*G:
=1
{4.g
8a
4b
4b
=2
8a
8dd
8cc
8a
4g
4r}
=3
{4.b
8cc
8ee
8dd
4dd
=4
8cc
8b
8cc
8dd
4b
4r}
=5
{4g
4gg
4gg
8ff#
8ee
=6
8ee
8dd
4dd
2b}
=7
{4.bb
8ee
8dd
8gg
8ee
8cc
=8
4b
4a
4g
4r}
=9
{4g
4gg
4gg
8ff#
8ee
=10
8ee
8dd
4dd
2b}
=11
{4.bb
8ee
8dd
8gg
8ee
8cc
=12
4b
4a
4g
4r}
==
!!!AGN: Studenten -, Trink - Lied, national
!!!ONB: ESAC (Essen Associative Code) Database: FINK
!!!AMT: simple quadruple
!!!AIN: vox
!!!EED: Helmut Schaffrath
!!!EEV: 1.0
*-
